X: 24
T: Thistle Down
%R: march, reel
B: "Twenty Four Country Dances with Figures for the Year 1813", Button & Whitaker, p.12 #2
F: http://www.vwml.org/browse/browse-collections-dance-tune-books/browse-button1813
Z: 2015 John Chambers <jc:trillian.mit.edu>
N: The Figures by Mr WILSON.
M: 2/4
L: 1/8
K: C
% - - - - - - - - - - - - - - - - - - - - - - - - - - - - -
G |\
cedg | ec BG | cedg | f/g/e/f/ dG |\
cedg | ecBG | cgca | e/f/d/e/ c :|
|: g |\
gc'af | dgec | f/g/e d/e/c | Bcd e |\
(fe)(dc) | (fe)(dc) | cgca | edc :|
% - - - - - - - - - - Dance description - - - - - - - - - -
%%text SINGLE FIGURE (Each strain repeated)
%%begintext align
%% Set and hands across set and back again |: lead down the
%% middle up again and right and left at top |: .
%%endtext
%%text DOUBLE FIGURE (Tune play'd twice thro' with repeats)
%%begintext align
%% Set & half right & left set & back again |: whole poussette |:
%% set contrary corners |: & whole figure contrary corners |: .
%%endtext
